Театр/img/кресло2.svg

<svg width="70" height="66" viewBox="0 0 70 66" fill="none" xmlns="http://www.w3.org/2000/svg">
<path d="M68.927 31.6411V1.93562C68.927 1.36851 68.4674 0.908722 67.9001 0.908722H2.1C1.53276 0.908722 1.07311 1.36851 1.07311 1.93562V31.6412C0.435723 31.9787 0 32.648 0 33.418V35.5258C0 36.2958 0.435723 36.9654 1.07311 37.3028V64.0643C1.07311 64.6314 1.53289 65.0912 2.1 65.0912H6.7654H11.3462H11.6569H23.1602H34.9745H46.7887H58.3432H58.6027H63.2346H67.9C68.4672 65.0912 68.9269 64.6314 68.9269 64.0643V37.3028C69.5643 36.9652 70 36.2958 70 35.5258V33.418C70.0001 32.648 69.5644 31.9787 68.927 31.6411ZM66.4858 2.96265C66.0744 3.5675 65.315 4.27597 64.113 5.03094C64.0983 5.04023 64.0832 5.04939 64.0685 5.05869C63.9987 5.10217 63.9271 5.14578 63.8545 5.18953C63.8213 5.20949 63.788 5.22932 63.7544 5.24928C63.6992 5.28209 63.6424 5.3149 63.5854 5.34785C63.5395 5.37438 63.4937 5.4009 63.4466 5.42756C63.4015 5.45313 63.3549 5.47883 63.3087 5.5044C63.2513 5.53625 63.1945 5.56811 63.1356 5.6001C63.1254 5.6057 63.1146 5.61131 63.1043 5.61678C62.9556 5.69717 62.8015 5.77756 62.6434 5.85822C62.6009 5.87996 62.5592 5.90156 62.5159 5.92317C62.4553 5.95365 62.393 5.98401 62.3312 6.01449C62.2743 6.04238 62.2175 6.07041 62.1594 6.0983C62.1039 6.1251 62.0476 6.15176 61.9911 6.17856C61.919 6.21274 61.8459 6.24692 61.7718 6.2811C61.726 6.30229 61.6801 6.32348 61.6336 6.34467C61.5326 6.39074 61.4298 6.43682 61.3253 6.48289C61.3026 6.49301 61.2803 6.50299 61.2574 6.51311C60.8375 6.69713 60.3908 6.8817 59.9153 7.06614C59.9152 7.06614 59.9152 7.06627 59.9151 7.06627C59.3004 7.30471 58.644 7.54069 57.9421 7.77256C56.0422 8.39997 53.9944 8.94356 51.8391 9.39952C51.8049 9.40321 51.7707 9.40827 51.7364 9.41552C49.6913 9.84345 47.5388 10.1952 45.3389 10.4613C45.3111 10.4647 45.2839 10.4704 45.2566 10.4759C41.9447 10.8709 38.4897 11.0772 35.0001 11.0772C31.5105 11.0772 28.0553 10.871 24.7434 10.4762C24.7162 10.4706 24.6891 10.4648 24.6614 10.4616C22.4605 10.1954 20.3081 9.84358 18.2639 9.41579C18.2296 9.40854 18.1954 9.40348 18.1612 9.39979C16.0058 8.94383 13.9581 8.40024 12.0582 7.77284C11.3563 7.5411 10.6998 7.30498 10.0852 7.06655C10.0851 7.06655 10.0849 7.06641 10.0849 7.06641C9.60957 6.88211 9.16291 6.69754 8.74318 6.51352C8.72008 6.5034 8.69752 6.49315 8.67455 6.48303C8.57023 6.43696 8.46769 6.39102 8.36679 6.34508C8.32031 6.32389 8.27437 6.3027 8.22857 6.28151C8.15447 6.24733 8.08146 6.21301 8.00927 6.17897C7.95281 6.15217 7.89648 6.12551 7.84097 6.09871C7.78287 6.07068 7.72613 6.04279 7.66925 6.0149C7.60732 5.98442 7.54511 5.95406 7.48455 5.92358C7.44134 5.90184 7.39951 5.88024 7.35699 5.85863C7.20058 5.77893 7.048 5.69922 6.90062 5.61965C6.88872 5.61322 6.87628 5.6068 6.86453 5.60037C6.80587 5.56865 6.74941 5.53693 6.69226 5.50508C6.64591 5.47938 6.59902 5.45354 6.55376 5.42783C6.50673 5.40117 6.46093 5.37465 6.41499 5.34813C6.35798 5.31518 6.30138 5.28236 6.24601 5.24955C6.21224 5.22959 6.17902 5.20963 6.14593 5.1898C6.0732 5.14605 6.00169 5.10244 5.93196 5.05896C5.91706 5.04967 5.90216 5.04051 5.88739 5.03121C4.68522 4.27611 3.92589 3.5675 3.5145 2.96279H66.4858V2.96265ZM3.1269 5.56893C3.44327 5.84277 3.80626 6.12168 4.21765 6.40414C5.3088 7.15911 6.76308 7.94442 8.69369 8.72864C8.69219 15.18 6.81066 22.3591 5.20052 27.3211C5.02552 27.8606 5.32083 28.4398 5.86046 28.6148C6.39913 28.7896 6.97896 28.4944 7.15423 27.955C8.74783 23.0439 10.5982 16.0067 10.738 9.49399C10.9588 9.57042 11.1833 9.64684 11.4141 9.723C13.0885 10.2759 14.872 10.7662 16.7399 11.1905C14.5695 17.9248 11.0308 23.4767 8.37855 27.0141C8.03839 27.4679 8.13041 28.1116 8.58418 28.4517C8.76888 28.5902 8.98504 28.6571 9.19941 28.6571C9.51168 28.6571 9.82012 28.5152 10.0219 28.2461C12.7962 24.5458 16.5094 18.7135 18.761 11.6174C20.1754 11.8944 21.6307 12.1349 23.117 12.3379C20.9417 17.6675 16.5899 23.157 13.2013 26.9372C12.8227 27.3595 12.8582 28.0088 13.2806 28.3873C13.7031 28.766 14.3522 28.7304 14.7308 28.3082C21.049 21.2599 23.9186 15.9773 25.2219 12.5974C28.3948 12.9482 31.6837 13.1309 34.9999 13.1309C38.3165 13.1309 41.6055 12.9482 44.7785 12.5974C46.9989 18.3725 51.6693 24.2934 55.278 28.3183C55.6564 28.7405 56.3057 28.7759 56.7281 28.3973C57.1505 28.0187 57.1859 27.3695 56.8072 26.9471C53.4154 23.1644 49.0594 17.6705 46.8829 12.338C48.3693 12.1351 49.8245 11.8946 51.2389 11.6175C53.4932 18.7221 57.2125 24.5603 59.9916 28.2643C60.1934 28.5332 60.5016 28.675 60.8138 28.675C61.0284 28.675 61.2447 28.608 61.4294 28.4694C61.883 28.1289 61.9749 27.4853 61.6344 27.0316C58.9776 23.4906 55.433 17.9328 53.26 11.1904C55.1277 10.766 56.9113 10.2758 58.5857 9.72286C58.8165 9.64671 59.041 9.57028 59.2618 9.49386C59.4017 16.0032 61.2501 23.0359 62.8421 27.9437C63.0171 28.4833 63.5964 28.7783 64.1358 28.6038C64.6752 28.4288 64.9708 27.8495 64.7958 27.31C63.1873 22.3512 61.3078 15.1767 61.3063 8.7285C63.2369 7.94428 64.6912 7.15897 65.7824 6.40401C66.1937 6.12154 66.5569 5.84277 66.8731 5.56879V31.4077H61.1766C60.0682 31.4077 59.1664 32.3095 59.1664 33.4179V35.5257C59.1664 36.0719 59.3861 36.5672 59.7409 36.9299C59.1191 38.8199 58.3778 41.1923 57.6673 43.7621H12.333C11.6223 41.1923 10.8809 38.8195 10.2593 36.9299C10.614 36.5672 10.8338 36.0719 10.8338 35.5257V33.4179C10.8338 32.3095 9.93195 31.4077 8.82357 31.4077H3.1269V5.56893ZM2.05393 35.4821V33.4618H8.77982V35.4821H4.87663H2.1H2.05393ZM7.33785 62.703C7.22423 62.9093 7.00494 63.0374 6.7654 63.0374H3.1269V37.536H4.11073C7.85109 50.1993 9.05832 59.5788 7.33785 62.703ZM12.3731 63.0374V57.3692C12.3731 56.1487 13.3661 55.1557 14.5866 55.1557H19.92C21.1405 55.1557 22.1333 56.1487 22.1333 57.3692V63.0374H12.3731ZM24.1872 63.0374V57.3692C24.1872 56.1487 25.1802 55.1557 26.4007 55.1557H31.734C32.9546 55.1557 33.9475 56.1487 33.9475 57.3692V63.0374H24.1872ZM36.0015 63.0374V57.3692C36.0015 56.1487 36.9945 55.1557 38.2149 55.1557H43.5482C44.7688 55.1557 45.7616 56.1487 45.7616 57.3692V63.0374H36.0015ZM57.5758 63.0374H47.8156V57.3692C47.8156 56.1487 48.8086 55.1557 50.029 55.1557H55.3623C56.5828 55.1557 57.5758 56.1487 57.5758 57.3692V63.0374ZM59.6297 63.0373V57.3692C59.6297 55.0161 57.7154 53.1018 55.3625 53.1018H50.0292C48.7336 53.1018 47.5721 53.6828 46.7887 54.5972C46.0054 53.6828 44.8437 53.1018 43.5482 53.1018H38.2149C36.9195 53.1018 35.7578 53.6828 34.9745 54.597C34.1912 53.6828 33.0295 53.1018 31.734 53.1018H26.4007C25.1053 53.1018 23.9436 53.6828 23.1602 54.597C22.3769 53.6828 21.2152 53.1018 19.9198 53.1018H14.5866C12.2335 53.1018 10.3191 55.0161 10.3191 57.3692V63.0374H9.44182C11.5232 57.7769 8.54904 45.4247 6.25107 37.536H8.29652C9.26682 40.4829 10.5367 44.6323 11.5096 48.8458C11.6371 49.3984 12.1885 49.743 12.7413 49.6154C13.2939 49.4879 13.6384 48.9365 13.5108 48.3837C13.3118 47.5217 13.1007 46.6628 12.8823 45.8161H57.1181C56.8975 46.671 56.6844 47.5385 56.4837 48.4091C56.3563 48.9618 56.7009 49.5132 57.2537 49.6406C57.3313 49.6585 57.4089 49.6671 57.4854 49.6671C57.9529 49.6671 58.3756 49.3458 58.4853 48.8707C59.4591 44.6479 60.7315 40.489 61.7039 37.5359H63.7493C61.4514 45.4246 58.4772 57.7767 60.5586 63.0373H59.6297ZM66.8732 63.0374H63.2349C62.9953 63.0374 62.776 62.9093 62.6624 62.703C60.942 59.579 62.1492 50.1993 65.8894 37.536H66.8732V63.0374ZM67.9462 35.4821H67.9001H65.1235H61.2203V33.4618H67.9462V35.4821Z" fill="white"/>
</svg>

<svg width="70" height="66" fill="none" xmlns="http://www.w3.org/2000/svg"><path d="M68.927 31.641V1.936c0-.567-.46-1.027-1.027-1.027H2.1c-.567 0-1.027.46-1.027 1.027V31.64A2.011 2.011 0 000 33.418v2.108c0 .77.436 1.44 1.073 1.777v26.761c0 .567.46 1.027 1.027 1.027h65.8c.567 0 1.027-.46 1.027-1.027V37.303A2.011 2.011 0 0070 35.526v-2.108c0-.77-.436-1.44-1.073-1.777zM66.486 2.963c-.412.604-1.171 1.313-2.373 2.068l-.044.028a17.047 17.047 0 01-.315.19l-.169.099-.138.08-.138.076-.173.096-.032.017c-.148.08-.303.16-.46.241l-.128.065-.185.091-.172.084a23.06 23.06 0 01-.834.385l-.068.03c-.42.184-.866.369-1.342.553-.615.239-1.271.475-1.973.707A57.464 57.464 0 0151.84 9.4a1.029 1.029 0 00-.103.016c-2.045.427-4.197.78-6.397 1.045-.028.004-.055.01-.082.015A87.003 87.003 0 0135 11.077a87.05 87.05 0 01-10.257-.6c-.027-.006-.054-.012-.082-.015a75.834 75.834 0 01-6.397-1.046 1.029 1.029 0 00-.103-.016 57.46 57.46 0 01-6.103-1.627 40.953 40.953 0 01-1.973-.707 33.528 33.528 0 01-1.342-.552l-.068-.031a29.615 29.615 0 01-.666-.304l-.168-.08-.172-.084c-.062-.03-.124-.06-.184-.091l-.128-.065c-.156-.08-.309-.16-.456-.24-.012-.006-.025-.012-.036-.019-.06-.031-.116-.063-.173-.095l-.138-.077-.139-.08a18.083 18.083 0 01-.169-.098l-.1-.06a15.709 15.709 0 01-.214-.131l-.045-.028c-1.202-.755-1.961-1.463-2.372-2.068h62.97zM3.126 5.569c.317.274.68.553 1.092.835 1.09.755 2.545 1.54 4.476 2.325C8.692 15.18 6.81 22.359 5.2 27.32a1.027 1.027 0 101.953.634c1.594-4.911 3.444-11.948 3.584-18.461.22.076.445.153.676.229a58.01 58.01 0 005.326 1.467c-2.17 6.735-5.71 12.287-8.361 15.824a1.027 1.027 0 101.643 1.232c2.774-3.7 6.487-9.532 8.739-16.629 1.414.277 2.87.518 4.356.72-2.175 5.33-6.527 10.82-9.916 14.6a1.027 1.027 0 101.53 1.371c6.318-7.048 9.188-12.33 10.49-15.71 3.174.35 6.463.533 9.779.533s6.605-.183 9.779-.534c2.22 5.775 6.89 11.696 10.499 15.721a1.027 1.027 0 001.53-1.37c-3.393-3.784-7.749-9.277-9.925-14.61a76.495 76.495 0 004.356-.72c2.254 7.104 5.974 12.942 8.753 16.646a1.025 1.025 0 001.437.205c.454-.34.546-.984.205-1.437-2.656-3.541-6.201-9.1-8.374-15.842a58.045 58.045 0 005.326-1.467c.23-.076.455-.153.676-.23.14 6.51 1.988 13.543 3.58 18.45a1.027 1.027 0 001.954-.633c-1.609-4.959-3.488-12.133-3.49-18.581 1.93-.785 3.385-1.57 4.476-2.325.412-.282.775-.561 1.091-.835v25.839h-5.696c-1.109 0-2.01.901-2.01 2.01v2.108c0 .546.22 1.041.574 1.404a150.237 150.237 0 00-2.074 6.832H12.333c-.71-2.57-1.452-4.943-2.074-6.832.355-.363.575-.858.575-1.404v-2.108c0-1.108-.902-2.01-2.01-2.01H3.127V5.568zM2.055 35.482v-2.02H8.78v2.02H2.054zm5.284 27.221a.652.652 0 01-.573.334H3.127V37.536h.984c3.74 12.663 4.947 22.043 3.227 25.167zm5.035.334V57.37c0-1.22.993-2.213 2.214-2.213h5.333c1.22 0 2.213.993 2.213 2.213v5.668h-9.76zm11.814 0V57.37c0-1.22.993-2.213 2.214-2.213h5.333c1.22 0 2.213.993 2.213 2.213v5.668h-9.76zm11.814 0V57.37c0-1.22.994-2.213 2.214-2.213h5.333c1.22 0 2.214.993 2.214 2.213v5.668h-9.76zm21.575 0h-9.76V57.37c0-1.22.993-2.213 2.213-2.213h5.333c1.22 0 2.214.993 2.214 2.213v5.668zm2.054 0V57.37a4.272 4.272 0 00-4.268-4.267H50.03a4.258 4.258 0 00-3.24 1.495 4.258 4.258 0 00-3.24-1.495h-5.334a4.259 4.259 0 00-3.24 1.495 4.259 4.259 0 00-3.241-1.495h-5.333a4.259 4.259 0 00-3.24 1.495 4.259 4.259 0 00-3.241-1.495h-5.333a4.272 4.272 0 00-4.268 4.267v5.668h-.877c2.081-5.26-.893-17.612-3.19-25.501h2.045c.97 2.947 2.24 7.096 3.213 11.31a1.027 1.027 0 102-.462c-.198-.862-.41-1.721-.628-2.568h44.236c-.22.855-.434 1.722-.634 2.593a1.027 1.027 0 102.001.462c.974-4.223 2.246-8.382 3.219-11.335h2.045c-2.298 7.889-5.272 20.24-3.19 25.501h-.93zm7.243 0h-3.638a.652.652 0 01-.573-.334c-1.72-3.124-.513-12.504 3.227-25.167h.984v25.501zm1.073-27.555H61.22v-2.02h6.726v2.02z" fill="#fff"/></svg>
